X: 38640
T: Stormy Blues
R: reel
M: 4/4
K: Dminor
d3A BAGB|ADFA GECE|Ddd^c defd|deef edcA|
dfaf ecAd|BGcA EFEF|Dddc ABBA|GE~E2 EDFA:|
AFDG ECFD|B,D=B,D CEEE|FEDF EDFD|EDEF GBBB|
AFDG ECFD|B,DDD CDEG|{B}AAAB AGEG|(3FFF EF D^GGG:|

